resources/svg/netease-cloud-music-line.svg

<svg fill="currentColor" viewBox="0 0 24 24" xmlns="http://www.w3.org/2000/svg"><path d="M10.4222 11.375C10.1278 12.4026 10.4341 13.4395 11.2058 14.0282C12.267 14.8376 13.7712 14.3289 14.0796 13.0331C14.1599 12.6958 14.1833 12.311 14.1067 11.9767C13.8775 10.9756 13.586 9.98862 13.3147 8.98094C11.9843 9.13543 10.7722 10.1533 10.4222 11.375ZM15.9698 11.0879C16.2427 12.1002 16.2553 13.1053 15.8435 14.0875C14.7148 16.7784 11.1215 17.2286 9.26951 14.9136C7.96829 13.2869 7.99065 10.953 9.32982 9.18031C10.1096 8.14796 11.1339 7.47322 12.3776 7.12595C12.5007 7.09159 12.6241 7.058 12.7566 7.02157C12.6731 6.60736 12.569 6.20612 12.5143 5.79828C12.3375 4.48137 13.026 3.29477 14.2582 2.7574C15.4836 2.22294 16.9661 2.54204 17.7889 3.51738C18.1936 3.99703 18.183 4.59854 17.7631 4.98218C17.3507 5.359 16.7665 5.32761 16.3276 4.89118C16.0809 4.64585 15.8185 4.45112 15.451 4.45569C14.9264 4.46223 14.4642 4.87382 14.5058 5.39329C14.5432 5.86105 14.6785 6.32376 14.8058 6.77892C14.8276 6.85679 15.0218 6.91415 15.1436 6.9321C16.4775 7.12862 17.6476 7.66332 18.6165 8.60769C21.1739 11.1006 21.4772 15.1394 19.2882 18.0482C17.7593 20.0797 15.6785 21.2165 13.1609 21.4567C8.53953 21.8977 4.49683 18.9278 3.46188 14.3992C2.5147 10.2551 4.8397 5.83074 8.79509 4.25032C9.38067 4.01635 9.93787 4.21869 10.1664 4.74827C10.3982 5.28546 10.147 5.83389 9.55552 6.09847C7.18759 7.15787 5.73935 8.9527 5.34076 11.5215C4.80806 14.9546 6.99662 18.2982 10.3416 19.2428C13.0644 20.0117 15.9994 19.0758 17.6494 16.9123C19.2354 14.8328 19.0484 11.8131 17.2221 10.0389C16.7172 9.54838 16.1246 9.21455 15.3988 9.02564C15.5974 9.74151 15.7879 10.4136 15.9698 11.0879Z"/></svg>

<svg xmlns="http://www.w3.org/2000/svg" viewBox="0 0 24 24" fill="currentColor">
    <g>
        <path fill="none" d="M0 0h24v24H0z"/>
        <path d="M10.421 11.375c-.294 1.028.012 2.064.784 2.653 1.061.81 2.565.3 2.874-.995.08-.337.103-.722.027-1.056-.23-1.001-.52-1.988-.792-2.996-1.33.154-2.543 1.172-2.893 2.394zm5.548-.287c.273 1.012.285 2.017-.127 3-1.128 2.69-4.721 3.14-6.573.826-1.302-1.627-1.28-3.961.06-5.734.78-1.032 1.804-1.707 3.048-2.054l.379-.104c-.084-.415-.188-.816-.243-1.224-.176-1.317.512-2.503 1.744-3.04 1.226-.535 2.708-.216 3.53.76.406.479.395 1.08-.025 1.464-.412.377-.996.346-1.435-.09-.247-.246-.51-.44-.877-.436-.525.006-.987.418-.945.937.037.468.173.93.3 1.386.022.078.216.135.338.153 1.334.197 2.504.731 3.472 1.676 2.558 2.493 2.861 6.531.672 9.44-1.529 2.032-3.61 3.168-6.127 3.409-4.621.44-8.664-2.53-9.7-7.058C2.515 10.255 4.84 5.831 8.795 4.25c.586-.234 1.143-.031 1.371.498.232.537-.019 1.086-.61 1.35-2.368 1.06-3.817 2.855-4.215 5.424-.533 3.433 1.656 6.776 5 7.72 2.723.77 5.658-.166 7.308-2.33 1.586-2.08 1.4-5.099-.427-6.873a3.979 3.979 0 0 0-1.823-1.013c.198.716.389 1.388.57 2.062z"/>
    </g>
</svg>
